devices/48/drive-harddisk.svg

<?xml version="1.0" encoding="UTF-8" standalone="no"?>
<!-- Created with Inkscape (http://www.inkscape.org/) -->

<svg
   xmlns:svg="http://www.w3.org/2000/svg"
   xmlns="http://www.w3.org/2000/svg"
   xmlns:xlink="http://www.w3.org/1999/xlink"
   version="1.0"
   width="48"
   height="48"
   id="svg3786">
  <defs
     id="defs3788">
    <linearGradient
       id="linearGradient5060">
      <stop
         id="stop5062"
         style="stop-color:black;stop-opacity:1"
         offset="0" />
      <stop
         id="stop5064"
         style="stop-color:black;stop-opacity:0"
         offset="1" />
    </linearGradient>
    <linearGradient
       id="linearGradient5048">
      <stop
         id="stop5050"
         style="stop-color:black;stop-opacity:0"
         offset="0" />
      <stop
         id="stop5056"
         style="stop-color:black;stop-opacity:1"
         offset="0.5" />
      <stop
         id="stop5052"
         style="stop-color:black;stop-opacity:0"
         offset="1" />
    </linearGradient>
    <linearGradient
       id="linearGradient2215">
      <stop
         id="stop2223"
         style="stop-color:#666;stop-opacity:1"
         offset="0" />
      <stop
         id="stop2219"
         style="stop-color:#333;stop-opacity:1"
         offset="1" />
    </linearGradient>
    <linearGradient
       id="linearGradient3484">
      <stop
         id="stop3486"
         style="stop-color:#9b9b9b;stop-opacity:1"
         offset="0" />
      <stop
         id="stop3488"
         style="stop-color:#b6b6b6;stop-opacity:1"
         offset="1" />
    </linearGradient>
    <linearGradient
       id="linearGradient7056">
      <stop
         id="stop7064"
         style="stop-color:#e1e1e2;stop-opacity:1"
         offset="0" />
      <stop
         id="stop7060"
         style="stop-color:#d2d2d3;stop-opacity:1"
         offset="1" />
    </linearGradient>
    <linearGradient
       id="linearGradient7056-300">
      <stop
         id="stop3597"
         style="stop-color:#cbcbcb;stop-opacity:1"
         offset="0" />
      <stop
         id="stop3599"
         style="stop-color:#bdbdbe;stop-opacity:1"
         offset="1" />
    </linearGradient>
    <linearGradient
       id="linearGradient3776">
      <stop
         id="stop3778"
         style="stop-color:#a0a0a1;stop-opacity:1"
         offset="0" />
      <stop
         id="stop3780"
         style="stop-color:#e0e0e1;stop-opacity:1"
         offset="1" />
    </linearGradient>
    <linearGradient
       x1="44.261497"
       y1="53.951618"
       x2="44.261497"
       y2="28.299864"
       id="linearGradient2423"
       xlink:href="#linearGradient3776"
       gradientUnits="userSpaceOnUse"
       gradientTransform="matrix(0.2071759,0,0,0.2071759,16.750001,19.333188)" />
    <linearGradient
       x1="35.341114"
       y1="37.03133"
       x2="35.341114"
       y2="13.899854"
       id="linearGradient2426"
       xlink:href="#linearGradient7056-300"
       gradientUnits="userSpaceOnUse"
       gradientTransform="matrix(1.0393985,0,0,0.995671,-6.0986206,-0.8710774)" />
    <linearGradient
       x1="28.097086"
       y1="11.999853"
       x2="28.046757"
       y2="40.000149"
       id="linearGradient2431"
       xlink:href="#linearGradient7056"
       gradientUnits="userSpaceOnUse"
       gradientTransform="matrix(0.9999605,0,0,1.003626,-4.9989982,-1.0444232)" />
    <linearGradient
       x1="34.659508"
       y1="38.099998"
       x2="34.659508"
       y2="9.9298477"
       id="linearGradient2433"
       xlink:href="#linearGradient3484"
       gradientUnits="userSpaceOnUse"
       gradientTransform="translate(0,0.9998535)" />
    <linearGradient
       x1="29.9375"
       y1="41"
       x2="30"
       y2="49.999996"
       id="linearGradient2437"
       xlink:href="#linearGradient2215"
       gradientUnits="userSpaceOnUse"
       gradientTransform="matrix(1.0017502,0,0,0.7596403,-5.0508975,6.9363745)" />
    <radialGradient
       cx="605.71429"
       cy="486.64789"
       r="117.14286"
       fx="605.71429"
       fy="486.64789"
       id="radialGradient3192"
       xlink:href="#linearGradient5060"
       gradientUnits="userSpaceOnUse"
       gradientTransform="matrix(-0.04484747,0,0,0.02058824,32.61113,34.451372)" />
    <radialGradient
       cx="605.71429"
       cy="486.64789"
       r="117.14286"
       fx="605.71429"
       fy="486.64789"
       id="radialGradient3195"
       xlink:href="#linearGradient5060"
       gradientUnits="userSpaceOnUse"
       gradientTransform="matrix(0.04484747,0,0,0.02058824,15.38888,34.451372)" />
    <linearGradient
       x1="302.85715"
       y1="366.64789"
       x2="302.85715"
       y2="609.50507"
       id="linearGradient3198"
       xlink:href="#linearGradient5048"
       gradientUnits="userSpaceOnUse"
       gradientTransform="matrix(0.07635654,0,0,0.02058824,-3.5974283,34.451372)" />
  </defs>
  <rect
     width="36.869301"
     height="5"
     x="5.5653324"
     y="42"
     id="rect2723"
     style="opacity:0.3;fill:url(#linearGradient3198);fill-opacity:1;fill-rule:nonzero;stroke:none;stroke-width:0.5;marker:none;visibility:visible;display:inline;overflow:visible" />
  <path
     d="m 42.41667,42.000174 c 0,0 0,4.999723 0,4.999723 C 44.7262,47.009311 48,45.879712 48,44.499715 48,43.119718 45.42274,42.000174 42.41667,42.000174 z"
     id="path2725"
     style="opacity:0.3;fill:url(#radialGradient3195);fill-opacity:1;fill-rule:nonzero;stroke:none;stroke-width:0.5;marker:none;visibility:visible;display:inline;overflow:visible" />
  <path
     d="m 5.58333,42.000174 c 0,0 0,4.999723 0,4.999723 C 3.2737899,47.009311 0,45.879712 0,44.499715 0,43.119718 2.5772699,42.000174 5.58333,42.000174 z"
     id="path2727"
     style="opacity:0.3;fill:url(#radialGradient3192);fill-opacity:1;fill-rule:nonzero;stroke:none;stroke-width:1;marker:none;visibility:visible;display:inline;overflow:visible" />
  <path
     d="m 1.4638537,38.464001 45.0720003,0 -0.901202,6.072 -43.1694186,0 -1.0013797,-6.072 z"
     id="rect6431"
     style="fill:url(#linearGradient2437);fill-opacity:1;fill-rule:evenodd;stroke:#212122;stroke-width:0.9279989;stroke-linecap:round;stroke-linejoin:round;stroke-miterlimit:4;stroke-opacity:1;stroke-dasharray:none;stroke-dashoffset:0;display:inline;enable-background:new" />
  <rect
     width="45"
     height="1"
     x="1.5"
     y="37.999855"
     id="rect6381"
     style="fill:#d2d2d3;fill-opacity:1;fill-rule:evenodd;stroke:none;display:inline;enable-background:new" />
  <path
     d="M 46.55,38.601962 39.740367,12.827625 c -0.192553,-0.733973 -1.2012,-1.329879 -2.049166,-1.329879 l -27.617218,0 c -1.30274,0 -2.049257,0.198573 -2.323959,1.329879 L 1.45,38.576866"
     id="path6345"
     style="fill:url(#linearGradient2431);fill-opacity:1;fill-rule:nonzero;stroke:url(#linearGradient2433);stroke-width:0.99578345;stroke-linecap:round;stroke-linejoin:round;stroke-miterlimit:4;stroke-opacity:1;stroke-dasharray:none;stroke-dashoffset:0;marker:none;visibility:visible;display:inline;overflow:visible;enable-background:accumulate" />
  <path
     d="M 45.500002,38.499854 2.5000001,38.475803"
     id="path7046"
     style="opacity:0.4;fill:none;stroke:white;stroke-width:1;stroke-linecap:round;stroke-linejoin:miter;stroke-miterlimit:4;stroke-opacity:1;stroke-dasharray:none;stroke-dashoffset:0;marker:none;visibility:visible;display:inline;overflow:visible;enable-background:accumulate" />
  <path
     d="m 13.09375,13.968604 -2.84375,1.59375 -1.15625,5.15625 c -0.1743427,0.354406 -0.28125,0.709947 -0.28125,1.09375 0,0.02131 -5.822e-4,0.04127 0,0.0625 l -0.03125,0.15625 c 0.020963,7.55e-4 0.041649,-9.34e-4 0.0625,0 0.083436,0.857887 0.6202718,1.650727 1.5,2.3125 -1.8860097,1.325068 -3.03125,2.964818 -3.03125,4.75 0,4.372263 6.703236,7.906249 14.96875,7.90625 0.516595,0 1.027887,-0.0043 1.53125,-0.03125 l 14.375,0 3.8125,-2.78125 -4.65625,-18.625 -2.90625,-1.59375 -21.34375,0 z"
     id="path6886"
     style="opacity:0.4;fill:white;fill-opacity:1;fill-rule:nonzero;stroke:none;stroke-width:0.8855623;marker:none;visibility:visible;display:inline;overflow:visible;enable-background:accumulate" />
  <path
     d="m 13.09375,12.968604 -2.84375,1.59375 -1.15625,5.15625 c -0.1743427,0.354406 -0.28125,0.709947 -0.28125,1.09375 0,0.02131 -5.822e-4,0.04127 0,0.0625 l -0.03125,0.15625 c 0.020963,7.55e-4 0.041649,-9.34e-4 0.0625,0 0.083436,0.857887 0.6202718,1.650727 1.5,2.3125 -1.8860097,1.325068 -3.03125,2.964818 -3.03125,4.75 0,4.372263 6.703236,7.906249 14.96875,7.90625 0.516595,0 1.027887,-0.0043 1.53125,-0.03125 l 14.375,0 3.8125,-2.78125 -4.65625,-18.625 -2.90625,-1.59375 -21.34375,0 z"
     id="path3783"
     style="fill:url(#linearGradient2426);fill-opacity:1;fill-rule:nonzero;stroke:none;stroke-width:0.8855623;marker:none;visibility:visible;display:inline;overflow:visible;enable-background:accumulate" />
  <path
     d="m 28.499999,27.749854 c 5.33e-4,1.242829 -2.014341,2.250482 -4.499999,2.250482 -2.485659,0 -4.500533,-1.007653 -4.5,-2.250482 -5.33e-4,-1.242829 2.014341,-2.250483 4.5,-2.250483 2.485658,0 4.500532,1.007654 4.499999,2.250483 z"
     id="path3492"
     style="fill:#d4d4d5;fill-opacity:1;fill-rule:nonzero;stroke:url(#linearGradient2423);stroke-width:1.00000012;stroke-linecap:round;stroke-linejoin:round;stroke-miterlimit:4;stroke-opacity:1;stroke-dasharray:none;stroke-dashoffset:0;marker:none;visibility:visible;display:inline;overflow:visible;enable-background:accumulate" />
</svg>

<?xml version="1.0" encoding="UTF-8" standalone="no"?>
<!-- Created with Inkscape (http://www.inkscape.org/) -->
<svg
   xmlns:dc="http://purl.org/dc/elements/1.1/"
   xmlns:cc="http://creativecommons.org/ns#"
   xmlns:rdf="http://www.w3.org/1999/02/22-rdf-syntax-ns#"
   xmlns:svg="http://www.w3.org/2000/svg"
   xmlns="http://www.w3.org/2000/svg"
   xmlns:xlink="http://www.w3.org/1999/xlink"
   xmlns:sodipodi="http://sodipodi.sourceforge.net/DTD/sodipodi-0.dtd"
   xmlns:inkscape="http://www.inkscape.org/namespaces/inkscape"
   version="1.0"
   width="48"
   height="48"
   id="svg3786"
   sodipodi:version="0.32"
   inkscape:version="0.46"
   sodipodi:docname="drive-harddisk.svg"
   inkscape:output_extension="org.inkscape.output.svg.inkscape">
  <metadata
     id="metadata46">
    <rdf:RDF>
      <cc:Work
         rdf:about="">
        <dc:format>image/svg+xml</dc:format>
        <dc:type
           rdf:resource="http://purl.org/dc/dcmitype/StillImage" />
      </cc:Work>
    </rdf:RDF>
  </metadata>
  <sodipodi:namedview
     inkscape:window-height="794"
     inkscape:window-width="1440"
     inkscape:pageshadow="2"
     inkscape:pageopacity="0.0"
     guidetolerance="10.0"
     gridtolerance="10.0"
     objecttolerance="10.0"
     borderopacity="1.0"
     bordercolor="#666666"
     pagecolor="#ffffff"
     id="base"
     showgrid="false"
     inkscape:zoom="10.375"
     inkscape:cx="6.746988"
     inkscape:cy="24"
     inkscape:window-x="0"
     inkscape:window-y="24"
     inkscape:current-layer="svg3786" />
  <defs
     id="defs3788">
    <linearGradient
       id="linearGradient5060">
      <stop
         id="stop5062"
         style="stop-color:#000000;stop-opacity:1"
         offset="0" />
      <stop
         id="stop5064"
         style="stop-color:#000000;stop-opacity:0"
         offset="1" />
    </linearGradient>
    <linearGradient
       id="linearGradient5048">
      <stop
         id="stop5050"
         style="stop-color:#000000;stop-opacity:0"
         offset="0" />
      <stop
         id="stop5056"
         style="stop-color:#000000;stop-opacity:1"
         offset="0.5" />
      <stop
         id="stop5052"
         style="stop-color:#000000;stop-opacity:0"
         offset="1" />
    </linearGradient>
    <linearGradient
       id="linearGradient2215">
      <stop
         id="stop2223"
         style="stop-color:#666666;stop-opacity:1"
         offset="0" />
      <stop
         id="stop2219"
         style="stop-color:#333333;stop-opacity:1"
         offset="1" />
    </linearGradient>
    <linearGradient
       id="linearGradient3484">
      <stop
         id="stop3486"
         style="stop-color:#9b9b9b;stop-opacity:1"
         offset="0" />
      <stop
         id="stop3488"
         style="stop-color:#b6b6b6;stop-opacity:1"
         offset="1" />
    </linearGradient>
    <linearGradient
       id="linearGradient7056">
      <stop
         id="stop7064"
         style="stop-color:#e1e1e2;stop-opacity:1"
         offset="0" />
      <stop
         id="stop7060"
         style="stop-color:#d2d2d3;stop-opacity:1"
         offset="1" />
    </linearGradient>
    <linearGradient
       id="linearGradient7056-300">
      <stop
         id="stop3597"
         style="stop-color:#cbcbcb;stop-opacity:1"
         offset="0" />
      <stop
         id="stop3599"
         style="stop-color:#bdbdbe;stop-opacity:1"
         offset="1" />
    </linearGradient>
    <linearGradient
       id="linearGradient3776">
      <stop
         id="stop3778"
         style="stop-color:#a0a0a1;stop-opacity:1"
         offset="0" />
      <stop
         id="stop3780"
         style="stop-color:#e0e0e1;stop-opacity:1"
         offset="1" />
    </linearGradient>
    <linearGradient
       x1="44.261497"
       y1="53.951618"
       x2="44.261497"
       y2="28.299864"
       id="linearGradient2423"
       xlink:href="#linearGradient3776"
       gradientUnits="userSpaceOnUse"
       gradientTransform="matrix(0.2071759,0,0,0.2071759,16.750001,19.333188)" />
    <linearGradient
       x1="35.341114"
       y1="37.03133"
       x2="35.341114"
       y2="13.899854"
       id="linearGradient2426"
       xlink:href="#linearGradient7056-300"
       gradientUnits="userSpaceOnUse"
       gradientTransform="matrix(1.0393985,0,0,0.995671,-6.0986206,-0.8710774)" />
    <linearGradient
       x1="28.097086"
       y1="11.999853"
       x2="28.046757"
       y2="40.000149"
       id="linearGradient2431"
       xlink:href="#linearGradient7056"
       gradientUnits="userSpaceOnUse"
       gradientTransform="matrix(0.9999605,0,0,1.003626,-4.9989982,-1.0444232)" />
    <linearGradient
       x1="34.659508"
       y1="38.099998"
       x2="34.659508"
       y2="9.9298477"
       id="linearGradient2433"
       xlink:href="#linearGradient3484"
       gradientUnits="userSpaceOnUse"
       gradientTransform="translate(0,0.9998535)" />
    <linearGradient
       x1="29.9375"
       y1="41"
       x2="30"
       y2="49.999996"
       id="linearGradient2437"
       xlink:href="#linearGradient2215"
       gradientUnits="userSpaceOnUse"
       gradientTransform="matrix(1.0017502,0,0,0.7596403,-5.0508975,6.9363745)" />
    <linearGradient
       x1="302.85715"
       y1="366.64789"
       x2="302.85715"
       y2="609.50507"
       id="linearGradient2443"
       xlink:href="#linearGradient5048"
       gradientUnits="userSpaceOnUse"
       gradientTransform="matrix(7.6356542e-2,0,0,2.1848787e-2,1.4025717,30.138555)" />
    <radialGradient
       cx="605.71429"
       cy="486.64789"
       r="117.14286"
       fx="605.71429"
       fy="486.64789"
       id="radialGradient2445"
       xlink:href="#linearGradient5060"
       gradientUnits="userSpaceOnUse"
       gradientTransform="matrix(4.4847472e-2,0,0,2.1848787e-2,20.38888,30.138555)" />
    <radialGradient
       cx="605.71429"
       cy="486.64789"
       r="117.14286"
       fx="605.71429"
       fy="486.64789"
       id="radialGradient2447"
       xlink:href="#linearGradient5060"
       gradientUnits="userSpaceOnUse"
       gradientTransform="matrix(-4.4847472e-2,0,0,2.1848787e-2,37.61113,30.138555)" />
    <radialGradient
       inkscape:collect="always"
       xlink:href="#linearGradient5060"
       id="radialGradient3192"
       gradientUnits="userSpaceOnUse"
       gradientTransform="matrix(-4.4847472e-2,0,0,2.0588237e-2,32.61113,34.451372)"
       cx="605.71429"
       cy="486.64789"
       fx="605.71429"
       fy="486.64789"
       r="117.14286" />
    <radialGradient
       inkscape:collect="always"
       xlink:href="#linearGradient5060"
       id="radialGradient3195"
       gradientUnits="userSpaceOnUse"
       gradientTransform="matrix(4.4847472e-2,0,0,2.0588237e-2,15.38888,34.451372)"
       cx="605.71429"
       cy="486.64789"
       fx="605.71429"
       fy="486.64789"
       r="117.14286" />
    <linearGradient
       inkscape:collect="always"
       xlink:href="#linearGradient5048"
       id="linearGradient3198"
       gradientUnits="userSpaceOnUse"
       gradientTransform="matrix(7.6356542e-2,0,0,2.0588237e-2,-3.5974283,34.451372)"
       x1="302.85715"
       y1="366.64789"
       x2="302.85715"
       y2="609.50507" />
  </defs>
  <rect
     style="opacity:0.3;fill:url(#linearGradient3198);fill-opacity:1;fill-rule:nonzero;stroke:none;stroke-width:0.50000000000000000;stroke-linecap:round;stroke-linejoin:miter;marker:none;marker-start:none;marker-mid:none;marker-end:none;stroke-miterlimit:3.42857146000000013;stroke-dasharray:none;stroke-dashoffset:0;stroke-opacity:1;visibility:visible;display:inline;overflow:visible"
     id="rect2723"
     y="42"
     x="5.5653324"
     height="5"
     width="36.869301" />
  <path
     style="opacity:0.3;fill:url(#radialGradient3195);fill-opacity:1;fill-rule:nonzero;stroke:none;stroke-width:0.50000000000000000;stroke-linecap:round;stroke-linejoin:miter;marker:none;marker-start:none;marker-mid:none;marker-end:none;stroke-miterlimit:3.42857146000000013;stroke-dasharray:none;stroke-dashoffset:0;stroke-opacity:1;visibility:visible;display:inline;overflow:visible"
     id="path2725"
     d="M 42.41667,42.000174 C 42.41667,42.000174 42.41667,46.999897 42.41667,46.999897 C 44.7262,47.009311 48,45.879712 48,44.499715 C 48,43.119718 45.42274,42.000174 42.41667,42.000174 z" />
  <path
     style="opacity:0.3;fill:url(#radialGradient3192);fill-opacity:1;fill-rule:nonzero;stroke:none;stroke-width:1;stroke-linecap:round;stroke-linejoin:miter;marker:none;marker-start:none;marker-mid:none;marker-end:none;stroke-miterlimit:4;stroke-dasharray:none;stroke-dashoffset:0;stroke-opacity:1;visibility:visible;display:inline;overflow:visible"
     id="path2727"
     d="M 5.58333,42.000174 C 5.58333,42.000174 5.58333,46.999897 5.58333,46.999897 C 3.2737899,47.009311 0,45.879712 0,44.499715 C 0,43.119718 2.5772699,42.000174 5.58333,42.000174 z" />
  <path
     d="M 1.4638537,38.464001 L 46.535854,38.464001 L 45.634652,44.536001 L 2.4652334,44.536001 L 1.4638537,38.464001 z"
     id="rect6431"
     style="fill:url(#linearGradient2437);fill-opacity:1;fill-rule:evenodd;stroke:#212122;stroke-width:0.9279989;stroke-linecap:round;stroke-linejoin:round;stroke-miterlimit:4;stroke-dasharray:none;stroke-dashoffset:0;stroke-opacity:1;display:inline;enable-background:new" />
  <rect
     width="45"
     height="1"
     x="1.5"
     y="37.999855"
     id="rect6381"
     style="fill:#d2d2d3;fill-opacity:1;fill-rule:evenodd;stroke:none;stroke-width:0.99400002;stroke-linecap:butt;stroke-linejoin:miter;stroke-miterlimit:4;stroke-dasharray:none;stroke-dashoffset:0;stroke-opacity:1;display:inline;enable-background:new" />
  <path
     d="M 46.55,38.601962 L 39.740367,12.827625 C 39.547814,12.093652 38.539167,11.497746 37.691201,11.497746 L 10.073983,11.497746 C 8.771243,11.497746 8.024726,11.696319 7.750024,12.827625 L 1.45,38.576866"
     id="path6345"
     style="fill:url(#linearGradient2431);fill-opacity:1;fill-rule:nonzero;stroke:url(#linearGradient2433);stroke-width:0.99578345;stroke-linecap:round;stroke-linejoin:round;marker:none;marker-start:none;marker-mid:none;marker-end:none;stroke-miterlimit:4;stroke-dasharray:none;stroke-dashoffset:0;stroke-opacity:1;visibility:visible;display:inline;overflow:visible;enable-background:accumulate" />
  <path
     d="M 45.500002,38.499854 L 2.5000001,38.475803"
     id="path7046"
     style="opacity:0.4;fill:none;fill-opacity:1;fill-rule:nonzero;stroke:#ffffff;stroke-width:1;stroke-linecap:round;stroke-linejoin:miter;marker:none;marker-start:none;marker-mid:none;marker-end:none;stroke-miterlimit:4;stroke-dasharray:none;stroke-dashoffset:0;stroke-opacity:1;visibility:visible;display:inline;overflow:visible;enable-background:accumulate" />
  <path
     d="M 13.09375,13.968604 L 10.25,15.562354 L 9.09375,20.718604 C 8.9194073,21.07301 8.8125,21.428551 8.8125,21.812354 C 8.8125,21.833665 8.8119178,21.853624 8.8125,21.874854 L 8.78125,22.031104 C 8.802213,22.031859 8.8228994,22.03017 8.84375,22.031104 C 8.9271863,22.888991 9.4640218,23.681831 10.34375,24.343604 C 8.4577403,25.668672 7.3125,27.308422 7.3125,29.093604 C 7.3125,33.465867 14.015736,36.999853 22.28125,36.999854 C 22.797845,36.999854 23.309137,36.995555 23.8125,36.968604 L 38.1875,36.968604 L 42,34.187354 L 37.34375,15.562354 L 34.4375,13.968604 L 13.09375,13.968604 z"
     id="path6886"
     style="opacity:0.4;fill:#ffffff;fill-opacity:1;fill-rule:nonzero;stroke:none;stroke-width:0.8855623;stroke-linecap:round;stroke-linejoin:round;marker:none;marker-start:none;marker-mid:none;marker-end:none;stroke-miterlimit:4;stroke-dasharray:none;stroke-dashoffset:0;stroke-opacity:1;visibility:visible;display:inline;overflow:visible;enable-background:accumulate" />
  <path
     d="M 13.09375,12.968604 L 10.25,14.562354 L 9.09375,19.718604 C 8.9194073,20.07301 8.8125,20.428551 8.8125,20.812354 C 8.8125,20.833665 8.8119178,20.853624 8.8125,20.874854 L 8.78125,21.031104 C 8.802213,21.031859 8.8228994,21.03017 8.84375,21.031104 C 8.9271863,21.888991 9.4640218,22.681831 10.34375,23.343604 C 8.4577403,24.668672 7.3125,26.308422 7.3125,28.093604 C 7.3125,32.465867 14.015736,35.999853 22.28125,35.999854 C 22.797845,35.999854 23.309137,35.995555 23.8125,35.968604 L 38.1875,35.968604 L 42,33.187354 L 37.34375,14.562354 L 34.4375,12.968604 L 13.09375,12.968604 z"
     id="path3783"
     style="fill:url(#linearGradient2426);fill-opacity:1;fill-rule:nonzero;stroke:none;stroke-width:0.8855623;stroke-linecap:round;stroke-linejoin:round;marker:none;marker-start:none;marker-mid:none;marker-end:none;stroke-miterlimit:4;stroke-dasharray:none;stroke-dashoffset:0;stroke-opacity:1;visibility:visible;display:inline;overflow:visible;enable-background:accumulate" />
  <path
     d="M 28.499999,27.749854 C 28.500532,28.992683 26.485658,30.000336 24,30.000336 C 21.514341,30.000336 19.499467,28.992683 19.5,27.749854 C 19.499467,26.507025 21.514341,25.499371 24,25.499371 C 26.485658,25.499371 28.500532,26.507025 28.499999,27.749854 z"
     id="path3492"
     style="fill:#d4d4d5;fill-opacity:1;fill-rule:nonzero;stroke:url(#linearGradient2423);stroke-width:1.00000012;stroke-linecap:round;stroke-linejoin:round;marker:none;marker-start:none;marker-mid:none;marker-end:none;stroke-miterlimit:4;stroke-dasharray:none;stroke-dashoffset:0;stroke-opacity:1;visibility:visible;display:inline;overflow:visible;enable-background:accumulate" />
</svg>
